img/dot.svg

<svg width="18" height="21" viewBox="0 0 18 21" fill="none" xmlns="http://www.w3.org/2000/svg">
<path d="M8.83764 0.907276L9.09287 0.911968C13.6687 1.06294 17.3244 4.8392 17.3088 9.45992L17.3087 9.56225C17.2566 12.3186 15.8776 15.0325 13.5894 17.4546C12.4606 18.6303 11.2001 19.6712 9.83291 20.5566L9.84287 20.5493L9.79475 20.59C9.24815 20.9827 8.52397 21.0108 7.95206 20.6742L7.82294 20.59L7.76261 20.5427L7.34917 20.2644C5.632 19.0806 4.1027 17.6444 2.81582 16.0081L2.49917 15.5949C1.15096 13.8279 0.385507 11.6833 0.308899 9.43353L0.313519 9.14863C0.463987 4.55862 4.22866 0.891664 8.83764 0.907276ZM8.83259 2.42474L8.59234 2.42799C4.84421 2.54225 1.83448 5.61948 1.82164 9.40714L1.84074 9.76416C1.97065 11.5447 2.61608 13.2514 3.70526 14.679C5.05747 16.4904 6.71686 18.0488 8.60756 19.2832L8.68978 19.3453C8.75813 19.4047 8.85948 19.4047 8.92787 19.3453L9.01247 19.2817C10.2816 18.4598 11.4518 17.4936 12.4955 16.4064C14.5423 14.2398 15.7523 11.8587 15.7961 9.54789L15.7928 9.21639C15.6788 5.45669 12.611 2.43766 8.83259 2.42474ZM8.80882 6.30851C10.5972 6.30851 12.047 7.76277 12.047 9.55668C12.047 11.3506 10.5972 12.8048 8.80882 12.8048C7.02043 12.8048 5.57065 11.3506 5.57065 9.55668C5.57065 7.76277 7.02043 6.30851 8.80882 6.30851ZM8.80882 7.82594C7.8559 7.82594 7.0834 8.60082 7.0834 9.55668C7.0834 10.5125 7.8559 11.2874 8.80882 11.2874C9.76175 11.2874 10.5342 10.5125 10.5342 9.55668C10.5342 8.60082 9.76175 7.82594 8.80882 7.82594Z" fill="#6D7D93"/>
</svg>

<svg width="18" height="21" fill="none" xmlns="http://www.w3.org/2000/svg"><path d="m8.838.907.255.005c4.576.15 8.231 3.927 8.216 8.548v.102c-.052 2.757-1.431 5.47-3.72 7.893a21.131 21.131 0 0 1-3.756 3.102l.01-.008-.048.041c-.547.393-1.271.42-1.843.084l-.13-.084-.06-.047-.413-.279a20.76 20.76 0 0 1-4.533-4.256l-.317-.413A10.736 10.736 0 0 1 .31 9.434l.005-.285C.464 4.559 4.229.892 8.838.907Zm-.005 1.518-.24.003c-3.749.114-6.759 3.191-6.771 6.98l.019.356a9.203 9.203 0 0 0 1.864 4.915 19.251 19.251 0 0 0 4.903 4.604l.082.062c.068.06.17.06.238 0l.084-.063a19.598 19.598 0 0 0 3.483-2.876c2.047-2.166 3.257-4.547 3.301-6.858l-.003-.332c-.114-3.76-3.182-6.778-6.96-6.791Zm-.024 3.884a3.243 3.243 0 0 1 3.238 3.248 3.243 3.243 0 0 1-3.238 3.248A3.243 3.243 0 0 1 5.57 9.557a3.243 3.243 0 0 1 3.238-3.248Zm0 1.517c-.953 0-1.726.775-1.726 1.73 0 .957.773 1.731 1.726 1.731s1.725-.775 1.725-1.73c0-.956-.772-1.731-1.725-1.731Z" fill="#6D7D93"/></svg>
